src/assets/svg/icons/star.svg

<svg width="35" height="38" viewBox="0 0 35 38" fill="none" xmlns="http://www.w3.org/2000/svg">
<circle cx="17.5" cy="20.5" r="17.5" fill="#FFD234"/>
<path d="M28.25 15.0625L21.4062 14.0781L18.3125 7.84375C17.7969 6.76562 16.2031 6.71875 15.6406 7.84375L12.5938 14.0781L5.70312 15.0625C4.48438 15.25 4.01562 16.75 4.90625 17.6406L9.82812 22.4688L8.65625 29.2656C8.46875 30.4844 9.78125 31.4219 10.8594 30.8594L17 27.625L23.0938 30.8594C24.1719 31.4219 25.4844 30.4844 25.2969 29.2656L24.125 22.4688L29.0469 17.6406C29.9375 16.75 29.4688 15.25 28.25 15.0625ZM21.6875 21.6719L22.8125 28.1406L17 25.0938L11.1406 28.1406L12.2656 21.6719L7.53125 17.0781L14.0469 16.1406L17 10.2344L19.9062 16.1406L26.4219 17.0781L21.6875 21.6719Z" fill="#F95959"/>
</svg>

<svg width="35" height="38" fill="none" xmlns="http://www.w3.org/2000/svg"><circle cx="17.5" cy="20.5" r="17.5" fill="#FFD234"/><path d="m28.25 15.063-6.844-.985-3.093-6.234c-.516-1.078-2.11-1.125-2.672 0l-3.047 6.234-6.89.985c-1.22.187-1.688 1.687-.798 2.578l4.922 4.828-1.172 6.797c-.187 1.218 1.125 2.156 2.203 1.593L17 27.625l6.094 3.234c1.078.563 2.39-.375 2.203-1.593l-1.172-6.797 4.922-4.828c.89-.891.422-2.391-.797-2.578zm-6.563 6.609 1.125 6.469L17 25.094l-5.86 3.047 1.126-6.47-4.735-4.593 6.516-.937L17 10.234l2.906 5.907 6.516.937-4.735 4.594z" fill="#F95959"/></svg>
